tools/download-figma-icons/icons/outlined-medium/food.svg

<svg width="24" height="24" viewBox="0 0 24 24" fill="none" xmlns="http://www.w3.org/2000/svg">
<path fill-rule="evenodd" clip-rule="evenodd" d="M16.5 22.499H21V12.749H16.5V22.499ZM3 22.499H15V12.749H3V22.499ZM5.25 9.54801C5.25 9.17076 5.39325 8.81376 5.61525 8.58201L7.2495 7.12476C7.4085 6.98301 7.5 6.77901 7.5 6.56526V3.74901H8.01375H9V6.56526C9 6.76101 9.0765 6.94851 9.213 7.08876L10.6313 8.54451C10.9388 8.86251 11.1458 9.28851 11.1458 9.60426V11.2175C11.1458 11.2235 11.1474 11.2288 11.1491 11.2342C11.1506 11.2389 11.1521 11.2437 11.1525 11.249H5.25V9.54801ZM15.4958 1.84104C15.8745 1.54479 16.254 1.44354 16.6995 1.52679C16.7147 1.52925 16.7295 1.52789 16.7443 1.52653C16.7565 1.5254 16.7687 1.52427 16.7813 1.52529C16.7846 1.52604 16.7876 1.52754 16.7906 1.52904C16.7936 1.53054 16.7966 1.53204 16.8 1.53279C17.2808 1.63104 17.6603 1.90554 17.9603 2.37054C19.2383 4.35129 18.6765 9.00654 18.2408 11.249H12.645C12.774 9.14004 13.5338 3.37629 15.4958 1.84104ZM21.75 11.249H19.7655C20.1443 9.16626 20.847 4.07901 19.2218 1.55826C18.699 0.746763 17.9843 0.244263 17.1007 0.0627634C17.0806 0.058827 17.0615 0.0602469 17.0424 0.0616684C17.0287 0.0626844 17.0151 0.0637013 17.001 0.0627634C16.9956 0.0616913 16.9913 0.0594273 16.987 0.0571883L16.987 0.0571864C16.9823 0.0547271 16.9776 0.0522985 16.9718 0.0515134C16.1115 -0.107487 15.2835 0.103263 14.571 0.660513C12.9375 1.93926 12.0705 4.92801 11.616 7.40601L10.5 6.26001V3.74901C10.9148 3.74901 11.25 3.41376 11.25 2.99901C11.25 2.58501 10.9148 2.24901 10.5 2.24901H9.75H8.01375H6.75H6C5.58525 2.24901 5.25 2.58501 5.25 2.99901C5.25 3.41376 5.58525 3.74901 6 3.74901V6.23001L4.57725 7.50126C4.044 8.05251 3.75 8.78001 3.75 9.54801V11.249H2.25C1.83525 11.249 1.5 11.585 1.5 11.999V23.249C1.5 23.663 1.83525 23.999 2.25 23.999H21.75C22.1647 23.999 22.5 23.663 22.5 23.249V11.999C22.5 11.585 22.1647 11.249 21.75 11.249ZM16.7198 7.27963C16.866 7.42588 17.058 7.49938 17.25 7.49938C17.442 7.49938 17.634 7.42588 17.7803 7.27963C18.0735 6.98638 18.0735 6.51238 17.7803 6.21913L16.2803 4.71913C15.987 4.42588 15.513 4.42588 15.2198 4.71913C14.9265 5.01238 14.9265 5.48638 15.2198 5.77963L16.7198 7.27963ZM15.9698 10.2796L14.4698 8.77963C14.1765 8.48713 14.1765 8.01238 14.4698 7.71913C14.763 7.42588 15.237 7.42588 15.5303 7.71913L17.0303 9.21838C17.3235 9.51163 17.3235 9.98638 17.0303 10.2796C16.884 10.4259 16.692 10.4986 16.5 10.4986C16.308 10.4986 16.116 10.4259 15.9698 10.2796Z" fill="black"/>
</svg>

<svg xmlns="http://www.w3.org/2000/svg" width="24" height="24" fill="none" viewBox="0 0 24 24"><path fill="currentColor" fill-rule="evenodd" d="M16.5 22.499H21v-9.75h-4.5zm-13.5 0h12v-9.75H3zM5.25 9.548c0-.377.143-.734.365-.966L7.25 7.125a.75.75 0 0 0 .25-.56V3.75H9v2.816a.75.75 0 0 0 .213.524l1.418 1.456c.308.318.515.744.515 1.06v1.612q0 .01.003.017l.004.015H5.25zm10.246-7.707c.378-.296.758-.397 1.204-.314q.023.002.044 0 .018-.003.037-.002l.01.004.009.004c.48.098.86.373 1.16.838 1.278 1.98.716 6.636.28 8.878h-5.595c.129-2.109.889-7.873 2.85-9.408m6.254 9.408h-1.985c.38-2.083 1.082-7.17-.543-9.69C18.699.746 17.984.243 17.1.062a.2.2 0 0 0-.059-.001H17q-.008-.001-.014-.005l-.015-.005c-.86-.16-1.689.051-2.401.609-1.633 1.278-2.5 4.267-2.955 6.745L10.5 6.26V3.749a.75.75 0 1 0 0-1.5H6a.75.75 0 1 0 0 1.5V6.23L4.577 7.501a2.93 2.93 0 0 0-.827 2.047v1.701h-1.5a.75.75 0 0 0-.75.75v11.25c0 .414.335.75.75.75h19.5a.75.75 0 0 0 .75-.75v-11.25a.75.75 0 0 0-.75-.75m-5.03-3.97a.75.75 0 0 0 1.06 0 .75.75 0 0 0 0-1.06l-1.5-1.5a.75.75 0 1 0-1.06 1.06zm-.75 3-1.5-1.5a.75.75 0 1 1 1.06-1.06l1.5 1.5a.75.75 0 1 1-1.06 1.06" clip-rule="evenodd"/></svg>
